file/spotify.svg

<svg clip-rule="evenodd" fill-rule="evenodd" stroke-linejoin="round" stroke-miterlimit="1.41421" viewBox="0 0 560 400" xmlns="http://www.w3.org/2000/svg"><path d="m83.996.277c-46.249 0-83.743 37.493-83.743 83.742 0 46.251 37.494 83.741 83.743 83.741 46.254 0 83.744-37.49 83.744-83.741 0-46.246-37.49-83.738-83.745-83.738zm38.404 120.78c-1.5 2.46-4.72 3.24-7.18 1.73-19.662-12.01-44.414-14.73-73.564-8.07-2.809.64-5.609-1.12-6.249-3.93-.643-2.81 1.11-5.61 3.926-6.25 31.9-7.288 59.263-4.15 81.337 9.34 2.46 1.51 3.24 4.72 1.73 7.18zm10.25-22.802c-1.89 3.072-5.91 4.042-8.98 2.152-22.51-13.836-56.823-17.843-83.448-9.761-3.453 1.043-7.1-.903-8.148-4.35-1.04-3.453.907-7.093 4.354-8.143 30.413-9.228 68.222-4.758 94.072 11.127 3.07 1.89 4.04 5.91 2.15 8.976zm.88-23.744c-26.99-16.031-71.52-17.505-97.289-9.684-4.138 1.255-8.514-1.081-9.768-5.219-1.254-4.14 1.08-8.513 5.221-9.771 29.581-8.98 78.756-7.245 109.83 11.202 3.73 2.209 4.95 7.016 2.74 10.733-2.2 3.722-7.02 4.949-10.73 2.739zm94.56 3.072c-14.46-3.448-17.03-5.868-17.03-10.953 0-4.804 4.52-8.037 11.25-8.037 6.52 0 12.98 2.455 19.76 7.509.2.153.46.214.71.174.26-.038.48-.177.63-.386l7.06-9.952c.29-.41.21-.975-.18-1.288-8.07-6.473-17.15-9.62-27.77-9.62-15.61 0-26.52 9.369-26.52 22.774 0 14.375 9.41 19.465 25.67 23.394 13.83 3.187 16.17 5.857 16.17 10.629 0 5.29-4.72 8.58-12.32 8.58-8.44 0-15.33-2.85-23.03-9.51-.19-.17-.45-.24-.69-.23-.26.02-.49.14-.65.33l-7.92 9.42c-.33.4-.29.98.09 1.32 8.96 8 19.98 12.22 31.88 12.22 16.82 0 27.69-9.19 27.69-23.42.03-12.007-7.16-18.657-24.77-22.941zm62.86-14.26c-7.29 0-13.27 2.872-18.21 8.757v-6.624c0-.523-.42-.949-.94-.949h-12.95c-.52 0-.94.426-.94.949v73.601c0 .52.42.95.94.95h12.95c.52 0 .94-.43.94-.95v-23.23c4.94 5.53 10.92 8.24 18.21 8.24 13.55 0 27.27-10.43 27.27-30.369.02-19.943-13.7-30.376-27.26-30.376zm12.21 30.375c0 10.149-6.25 17.239-15.21 17.239-8.85 0-15.53-7.41-15.53-17.239 0-9.83 6.68-17.238 15.53-17.238 8.81-.001 15.21 7.247 15.21 17.237zm50.21-30.375c-17.45 0-31.12 13.436-31.12 30.592 0 16.972 13.58 30.262 30.91 30.262 17.51 0 31.22-13.39 31.22-30.479 0-17.031-13.62-30.373-31.01-30.373zm0 47.714c-9.28 0-16.28-7.46-16.28-17.344 0-9.929 6.76-17.134 16.07-17.134 9.34 0 16.38 7.457 16.38 17.351 0 9.927-6.8 17.127-16.17 17.127zm68.27-46.53h-14.25v-14.566c0-.522-.42-.948-.94-.948h-12.95c-.52 0-.95.426-.95.948v14.566h-6.22c-.52 0-.94.426-.94.949v11.127c0 .522.42.949.94.949h6.22v28.795c0 11.63 5.79 17.53 17.22 17.53 4.64 0 8.49-.96 12.12-3.02.3-.16.48-.48.48-.82v-10.6c0-.32-.17-.63-.45-.8-.28-.18-.63-.19-.92-.04-2.49 1.25-4.9 1.83-7.6 1.83-4.15 0-6.01-1.89-6.01-6.11v-26.76h14.25c.52 0 .94-.426.94-.949v-11.126c.02-.523-.4-.949-.93-.949zm49.64.057v-1.789c0-5.263 2.02-7.61 6.54-7.61 2.7 0 4.87.536 7.3 1.346.3.094.61.047.85-.132.25-.179.39-.466.39-.77v-10.91c0-.417-.26-.786-.67-.909-2.56-.763-5.84-1.546-10.76-1.546-11.95 0-18.28 6.734-18.28 19.467v2.74h-6.22c-.52 0-.95.426-.95.948v11.184c0 .522.43.949.95.949h6.22v44.405c0 .53.43.95.95.95h12.94c.53 0 .95-.42.95-.95v-44.402h12.09l18.52 44.402c-2.1 4.66-4.17 5.59-6.99 5.59-2.28 0-4.69-.68-7.14-2.03-.23-.12-.51-.14-.75-.07-.25.09-.46.27-.56.51l-4.39 9.63c-.21.46-.03.99.41 1.23 4.58 2.48 8.71 3.54 13.82 3.54 9.56 0 14.85-4.46 19.5-16.44l22.46-58.037c.12-.292.08-.622-.1-.881-.17-.257-.46-.412-.77-.412h-13.48c-.41 0-.77.257-.9.636l-13.81 39.434-15.12-39.46c-.14-.367-.49-.61-.88-.61h-22.12zm-28.78-.057h-12.95c-.52 0-.95.426-.95.949v56.481c0 .53.43.95.95.95h12.95c.52 0 .95-.42.95-.95v-56.477c0-.523-.42-.949-.95-.949zm-6.4-25.719c-5.13 0-9.29 4.152-9.29 9.281 0 5.132 4.16 9.289 9.29 9.289s9.28-4.157 9.28-9.289c0-5.128-4.16-9.281-9.28-9.281zm113.42 43.88c-5.12 0-9.11-4.115-9.11-9.112s4.04-9.159 9.16-9.159 9.11 4.114 9.11 9.107c0 4.997-4.04 9.164-9.16 9.164zm.05-17.365c-4.67 0-8.2 3.71-8.2 8.253 0 4.541 3.51 8.201 8.15 8.201 4.67 0 8.2-3.707 8.2-8.253 0-4.541-3.51-8.201-8.15-8.201zm2.02 9.138 2.58 3.608h-2.18l-2.32-3.31h-1.99v3.31h-1.82v-9.564h4.26c2.23 0 3.69 1.137 3.69 3.051.01 1.568-.9 2.526-2.21 2.905zm-1.54-4.315h-2.37v3.025h2.37c1.18 0 1.89-.579 1.89-1.514 0-.984-.71-1.511-1.89-1.511z" fill="#1ed760" fill-rule="nonzero" transform="matrix(.644668 0 0 .644668 99.8369 145.836)"/></svg>

<?xml version="1.0" encoding="UTF-8" standalone="no"?>
<!DOCTYPE svg PUBLIC "-//W3C//DTD SVG 1.1//EN" "http://www.w3.org/Graphics/SVG/1.1/DTD/svg11.dtd">
<svg width="100%" height="100%" viewBox="0 0 560 400" version="1.1" xmlns="http://www.w3.org/2000/svg" xmlns:xlink="http://www.w3.org/1999/xlink" xml:space="preserve" xmlns:serif="http://www.serif.com/" style="fill-rule:evenodd;clip-rule:evenodd;stroke-linejoin:round;stroke-miterlimit:1.41421;">
    <g transform="matrix(0.644668,0,0,0.644668,99.8369,145.836)">
        <path d="M83.996,0.277C37.747,0.277 0.253,37.77 0.253,84.019C0.253,130.27 37.747,167.76 83.996,167.76C130.25,167.76 167.74,130.27 167.74,84.019C167.74,37.773 130.25,0.281 83.995,0.281L83.996,0.277ZM122.4,121.057C120.9,123.517 117.68,124.297 115.22,122.787C95.558,110.777 70.806,108.057 41.656,114.717C38.847,115.357 36.047,113.597 35.407,110.787C34.764,107.977 36.517,105.177 39.333,104.537C71.233,97.249 98.596,100.387 120.67,113.877C123.13,115.387 123.91,118.597 122.4,121.057ZM132.65,98.255C130.76,101.327 126.74,102.297 123.67,100.407C101.16,86.571 66.847,82.564 40.222,90.646C36.769,91.689 33.122,89.743 32.074,86.296C31.034,82.843 32.981,79.203 36.428,78.153C66.841,68.925 104.65,73.395 130.5,89.28C133.57,91.17 134.54,95.19 132.65,98.256L132.65,98.255ZM133.53,74.511C106.54,58.48 62.01,57.006 36.241,64.827C32.103,66.082 27.727,63.746 26.473,59.608C25.219,55.468 27.553,51.095 31.694,49.837C61.275,40.857 110.45,42.592 141.524,61.039C145.254,63.248 146.474,68.055 144.264,71.772C142.064,75.494 137.244,76.721 133.534,74.511L133.53,74.511ZM228.09,77.583C213.63,74.135 211.06,71.715 211.06,66.63C211.06,61.826 215.58,58.593 222.31,58.593C228.83,58.593 235.29,61.048 242.07,66.102C242.27,66.255 242.53,66.316 242.78,66.276C243.04,66.238 243.26,66.099 243.41,65.89L250.47,55.938C250.76,55.528 250.68,54.963 250.29,54.65C242.22,48.177 233.14,45.03 222.52,45.03C206.91,45.03 196,54.399 196,67.804C196,82.179 205.41,87.269 221.67,91.198C235.5,94.385 237.84,97.055 237.84,101.827C237.84,107.117 233.12,110.407 225.52,110.407C217.08,110.407 210.19,107.557 202.49,100.897C202.3,100.727 202.04,100.657 201.8,100.667C201.54,100.687 201.31,100.807 201.15,100.997L193.23,110.417C192.9,110.817 192.94,111.397 193.32,111.737C202.28,119.737 213.3,123.957 225.2,123.957C242.02,123.957 252.89,114.767 252.89,100.537C252.92,88.53 245.73,81.88 228.12,77.596L228.09,77.583ZM290.95,63.323C283.66,63.323 277.68,66.195 272.74,72.08L272.74,65.456C272.74,64.933 272.32,64.507 271.8,64.507L258.85,64.507C258.33,64.507 257.91,64.933 257.91,65.456L257.91,139.057C257.91,139.577 258.33,140.007 258.85,140.007L271.8,140.007C272.32,140.007 272.74,139.577 272.74,139.057L272.74,115.827C277.68,121.357 283.66,124.067 290.95,124.067C304.5,124.067 318.22,113.637 318.22,93.698C318.24,73.755 304.52,63.322 290.96,63.322L290.95,63.323ZM303.16,93.698C303.16,103.847 296.91,110.937 287.95,110.937C279.1,110.937 272.42,103.527 272.42,93.698C272.42,83.868 279.1,76.46 287.95,76.46C296.76,76.459 303.16,83.707 303.16,93.697L303.16,93.698ZM353.37,63.323C335.92,63.323 322.25,76.759 322.25,93.915C322.25,110.887 335.83,124.177 353.16,124.177C370.67,124.177 384.38,110.787 384.38,93.698C384.38,76.667 370.76,63.325 353.37,63.325L353.37,63.323ZM353.37,111.037C344.09,111.037 337.09,103.577 337.09,93.693C337.09,83.764 343.85,76.559 353.16,76.559C362.5,76.559 369.54,84.016 369.54,93.91C369.54,103.837 362.74,111.037 353.37,111.037ZM421.64,64.507L407.39,64.507L407.39,49.941C407.39,49.419 406.97,48.993 406.45,48.993L393.5,48.993C392.98,48.993 392.55,49.419 392.55,49.941L392.55,64.507L386.33,64.507C385.81,64.507 385.39,64.933 385.39,65.456L385.39,76.583C385.39,77.105 385.81,77.532 386.33,77.532L392.55,77.532L392.55,106.327C392.55,117.957 398.34,123.857 409.77,123.857C414.41,123.857 418.26,122.897 421.89,120.837C422.19,120.677 422.37,120.357 422.37,120.017L422.37,109.417C422.37,109.097 422.2,108.787 421.92,108.617C421.64,108.437 421.29,108.427 421,108.577C418.51,109.827 416.1,110.407 413.4,110.407C409.25,110.407 407.39,108.517 407.39,104.297L407.39,77.537L421.64,77.537C422.16,77.537 422.58,77.111 422.58,76.588L422.58,65.462C422.6,64.939 422.18,64.513 421.65,64.513L421.64,64.507ZM471.28,64.564L471.28,62.775C471.28,57.512 473.3,55.165 477.82,55.165C480.52,55.165 482.69,55.701 485.12,56.511C485.42,56.605 485.73,56.558 485.97,56.379C486.22,56.2 486.36,55.913 486.36,55.609L486.36,44.699C486.36,44.282 486.1,43.913 485.69,43.79C483.13,43.027 479.85,42.244 474.93,42.244C462.98,42.244 456.65,48.978 456.65,61.711L456.65,64.451L450.43,64.451C449.91,64.451 449.48,64.877 449.48,65.399L449.48,76.583C449.48,77.105 449.91,77.532 450.43,77.532L456.65,77.532L456.65,121.937C456.65,122.467 457.08,122.887 457.6,122.887L470.54,122.887C471.07,122.887 471.49,122.467 471.49,121.937L471.49,77.535L483.58,77.535L502.1,121.937C500,126.597 497.93,127.527 495.11,127.527C492.83,127.527 490.42,126.847 487.97,125.497C487.74,125.377 487.46,125.357 487.22,125.427C486.97,125.517 486.76,125.697 486.66,125.937L482.27,135.567C482.06,136.027 482.24,136.557 482.68,136.797C487.26,139.277 491.39,140.337 496.5,140.337C506.06,140.337 511.35,135.877 516,123.897L538.46,65.86C538.58,65.568 538.54,65.238 538.36,64.979C538.19,64.722 537.9,64.567 537.59,64.567L524.11,64.567C523.7,64.567 523.34,64.824 523.21,65.203L509.4,104.637L494.28,65.177C494.14,64.81 493.79,64.567 493.4,64.567L471.28,64.567L471.28,64.564ZM442.5,64.507L429.55,64.507C429.03,64.507 428.6,64.933 428.6,65.456L428.6,121.937C428.6,122.467 429.03,122.887 429.55,122.887L442.5,122.887C443.02,122.887 443.45,122.467 443.45,121.937L443.45,65.46C443.45,64.937 443.03,64.511 442.5,64.511L442.5,64.507ZM436.1,38.788C430.97,38.788 426.81,42.94 426.81,48.069C426.81,53.201 430.97,57.358 436.1,57.358C441.23,57.358 445.38,53.201 445.38,48.069C445.38,42.941 441.22,38.788 436.1,38.788ZM549.52,82.668C544.4,82.668 540.41,78.553 540.41,73.556C540.41,68.559 544.45,64.397 549.57,64.397C554.69,64.397 558.68,68.511 558.68,73.504C558.68,78.501 554.64,82.668 549.52,82.668ZM549.57,65.303C544.9,65.303 541.37,69.013 541.37,73.556C541.37,78.097 544.88,81.757 549.52,81.757C554.19,81.757 557.72,78.05 557.72,73.504C557.72,68.963 554.21,65.303 549.57,65.303ZM551.59,74.441L554.17,78.049L551.99,78.049L549.67,74.739L547.68,74.739L547.68,78.049L545.86,78.049L545.86,68.485L550.12,68.485C552.35,68.485 553.81,69.622 553.81,71.536C553.82,73.104 552.91,74.062 551.6,74.441L551.59,74.441ZM550.05,70.126L547.68,70.126L547.68,73.151L550.05,73.151C551.23,73.151 551.94,72.572 551.94,71.637C551.94,70.653 551.23,70.126 550.05,70.126Z" style="fill:rgb(30,215,96);fill-rule:nonzero;"/>
    </g>
</svg>
